svgs/cco/file-text.svg

<svg xmlns="http://www.w3.org/2000/svg" viewBox="0 0 16 16" class="symbol symbol-file-text" aria-labelledby="title" role="img"><title id="title">file-text icon</title><g data-name="Layer 1"><path class="cls-1" d="M7.146 7.212v.516a.291.291 0 0 1-.295.295.3.3 0 0 1-.295-.258h-.35v1.491a.3.3 0 0 1 .258.295.291.291 0 0 1-.295.295h-.514a.291.291 0 0 1-.295-.295.3.3 0 0 1 .258-.295V7.765h-.442a.28.28 0 0 1-.276.258.291.291 0 0 1-.295-.295v-.516a.291.291 0 0 1 .295-.294.3.3 0 0 1 .295.258h1.38a.286.286 0 0 1 .571.037zm3.673 1.137h-2.57a.425.425 0 0 1 0-.85h2.57a.425.425 0 1 1 0 .85zm0 1.478h-2.57a.425.425 0 0 1 0-.85h2.57a.425.425 0 1 1 0 .85zm0 1.48H4.976a.425.425 0 0 1 0-.85h5.844a.425.425 0 1 1 0 .85zm0 1.478H4.976a.425.425 0 1 1 0-.85h5.844a.425.425 0 1 1 0 .85z" role="presentation"/><path class="cls-1" d="M9.845 0H2.35a.8.8 0 0 0-.8.8v14.4a.8.8 0 0 0 .8.8h11.3a.8.8 0 0 0 .8-.8V4.15zm2.564 4.155l-2.453.007a.118.118 0 0 1-.118-.118V1.85zm.7 10.5H2.9V1.35h5.6v2.691a1.468 1.468 0 0 0 1.46 1.471L13.1 5.5z" role="presentation"/></g></svg>

<svg xmlns="http://www.w3.org/2000/svg" viewBox="0 0 16 16" aria-labelledby="title" role="img" class="symbol symbol-file-text"><title id="title">file-text icon</title><g id="Layer_1" data-name="Layer 1"><path d="M7.15,7.21v.52A.29.29,0,0,1,6.85,8a.3.3,0,0,1-.29-.26H6.21V9.26a.3.3,0,0,1,.26.29.29.29,0,0,1-.29.29H5.65a.29.29,0,0,1-.29-.29.3.3,0,0,1,.26-.29V7.76H5.18A.28.28,0,0,1,4.9,8a.29.29,0,0,1-.29-.29V7.21a.29.29,0,0,1,.29-.29.3.3,0,0,1,.29.26H6.58a.29.29,0,0,1,.57,0Z" style="fill:#020202" role="presentation"/><path d="M10.82,8.35H8.25a.42.42,0,0,1,0-.85h2.57a.42.42,0,1,1,0,.85Z" style="fill:#020202" role="presentation"/><path d="M10.82,9.83H8.25a.42.42,0,0,1,0-.85h2.57a.42.42,0,1,1,0,.85Z" style="fill:#020202" role="presentation"/><path d="M10.82,11.31H5a.42.42,0,0,1,0-.85h5.84a.42.42,0,1,1,0,.85Z" style="fill:#020202" role="presentation"/><path d="M10.82,12.79H5a.42.42,0,1,1,0-.85h5.84a.42.42,0,1,1,0,.85Z" style="fill:#020202" role="presentation"/><path d="M9.84,0H2.35a.8.8,0,0,0-.8.8V15.2a.8.8,0,0,0,.8.8h11.3a.8.8,0,0,0,.8-.8v-11Zm2.56,4.16H10A.12.12,0,0,1,9.84,4V1.85Zm.7,10.5H2.9V1.35h5.6V4A1.47,1.47,0,0,0,10,5.51H13.1Z" style="fill:#020202" role="presentation"/></g></svg>
